X:1
T:The Comforter Has Come
T:William James Kirkpatrick
T:The Comforter Has Come
T:Public Domain
T:Public Domain
C:William James Kirkpatrick
Z:Public Domain
%%score ( 1 2 ) 3
L:1/8
M:3/4
K:C
V:1 treble 
V:2 treble 
V:3 bass 
V:1
 [EG]2 | [EG]3 [FA] [EG][CE] | [EG]4 [Ec]2 | [Fc]3 [Fd] [Fc][FA] | [Fc]4 [FA]2 | %5
w: 1.~O|spread the tid- ings|’round, wher-|ev- er man is|found, Wher-|
w: 2.~The|long, long night is|past, the|morn- ing breaks at|last, And|
w: 3.~Lo,|the great King of|kings, with|heal- ing in His|wings, To|
w: 4.~O|bound- less love di-|vine! How|shall this tongue of|mine To|
 [EG]3 [FA] [EG][CE] | [EG]4 [CE]2 | [CE]3 [CE] [CD]C | [B,D]4 [FG]2 | %9
w: ev- er hu- man|hearts and|hu- man woes a-|Let ev-|
w: hushed the dread- ful|wail and|fur- y of the|As o’er|
w: ev- ’ry cap- tive|soul a|full de- live- rance|And through|
w: wond- ’ring mor- tals|tell the|match- less grace di-|That I,|
 [EG]3 [FA] [EG][CE] [EG]4 [Gc]2 | [Fc]3 [Fd] [Fc][FA] | [Fc]4 [FA]2 | [EG]4 [Ec]2 | [Ge]4 [Fd]2 | %14
w: ery Christ- ian tongue pro- claim|the joy- ful sound:|The Com-|fort- er|has come!|
w: the gold- en hills the day|ad- vanc- es fast!|The Com-|fort- er|has come!|
w: the va- cant cells the song|of tri- umph rings;|The Com-|fort- er|has come!|
w: a child of hell, should in|His im- age shine!|The Com-|fort- er|has come!|
 [Ec]6 ||"^Refrain" [Ec]2 | [Ge]3 [Fd] [Ec][Fd] | [Ge]4 [Ec]2 | [Fc]3 [Fd] [Fc][FA] | %19
w: |||||
w: The|Com-|fort- er has come,|the Com-|fort- er has come!|
w: |||||
w: |||||
 [Fc]4 [FA]2 |] %20
w: |
w: The *|
w: |
w: |
V:2
 x2 | x6 | x6 | x6 | x6 | x6 | x6 | x5 C | x6 | x12 | x6 | x6 | x6 | x6 | x6 || x2 | x6 | x6 | x6 | %19
w: |||||||bound;||||||||||||
w: |||||||blast,||||||||||||
w: |||||||brings;||||||||||||
w: |||||||vine—||||||||||||
 x6 |] %20
w: |
w: |
w: |
w: |
V:3
 [C,C]2 | [C,C]3 [C,C] [C,C][C,G,] | [C,C]4 [C,G,]2 | [F,A,]3 [F,A,] [F,A,][F,C] | [F,A,]4 [F,C]2 | %5
w: ~|~ ~ ~ ~|~ ~|~ ~ ~ ~|~ ~|
 [C,C]3 [C,C] [C,C][C,G,] | [C,C]4 [C,G,]2 | [A,,A,]3 [A,,A,] [D,^F,][D,F,] | [G,,G,]4 [G,,B,]2 | %9
w: Ho- ly Ghost from|Heav’n, the|Fa- ther’s prom- ise|giv’n; O|
 [C,C]3 [C,C] [C,C][C,G,] [C,C]4 [E,_B,]2 | [F,A,]3 [F,A,] [F,A,][F,C] | [F,A,]4 [F,C]2 | %12
w: spread the tid- ings ’round, wher-|ev- er man is|found— The|
 [G,C]4 [G,C]2 | [G,C]4 [G,B,]2 | [C,G,C]6 || [C,G,]2 | [C,C]3 [C,G,] [C,G,][C,G,] | %17
w: Com- fort-|er has|come!|||
 [C,C]4 [C,G,]2 | [F,A,]3 [F,A,] [F,A,][F,C] | [F,A,]4 [F,C]2 |] %20
w: |||

